plugins/render/assets/logo.svg

<svg width="800" height="800" viewBox="0 0 800 800" fill="none" xmlns="http://www.w3.org/2000/svg">
<g clip-path="url(#clip0_682_42)">
<path d="M605.28 288.733C605.221 287.368 605.102 286.033 604.984 284.668C604.954 284.342 604.954 283.986 604.894 283.659C604.805 282.829 604.687 282.027 604.568 281.197C604.449 280.336 604.36 279.506 604.241 278.675C604.152 278.082 604.034 277.488 603.915 276.924C603.737 275.886 603.559 274.818 603.351 273.78C603.173 272.949 602.965 272.148 602.787 271.317C602.609 270.516 602.431 269.745 602.253 268.944C602.045 268.113 601.778 267.312 601.54 266.481C601.333 265.71 601.125 264.968 600.887 264.197C600.62 263.366 600.323 262.535 600.027 261.704C599.789 260.992 599.552 260.28 599.314 259.568C598.928 258.53 598.513 257.521 598.127 256.512C597.919 256.008 597.741 255.533 597.533 255.029C597.058 253.931 596.584 252.863 596.079 251.795C595.901 251.409 595.723 250.994 595.545 250.608C595.07 249.599 594.535 248.62 594.031 247.641C593.793 247.196 593.586 246.751 593.348 246.306C592.755 245.208 592.102 244.111 591.478 243.043C591.3 242.746 591.152 242.449 590.974 242.153C590.291 241.025 589.579 239.927 588.837 238.83C588.688 238.592 588.54 238.355 588.391 238.118C587.501 236.812 586.581 235.507 585.631 234.231C584.741 233.044 583.82 231.857 582.871 230.7C582.811 230.611 582.752 230.522 582.663 230.433C564.319 208.211 536.626 194.089 505.609 194.059V194L505.52 194.059H505.549C496.942 194.059 488.571 195.157 480.587 197.204C475.808 198.421 471.148 200.023 466.666 201.892C465.182 202.515 463.698 203.197 462.243 203.88C432.769 218.061 411.398 246.306 406.679 279.891H406.62C404.542 294.281 400.119 307.899 393.827 320.419H394.035C372.129 363.854 327.132 393.671 275.129 393.671C251.918 393.671 230.131 387.738 211.135 377.324C208.909 376.107 206.208 377.71 206.208 380.231V393.671H206V593.254H405.7V493.448H405.907V443.545C405.907 415.982 428.258 393.642 455.832 393.642H505.757C514.305 393.642 522.587 392.544 530.512 390.497C535.291 389.251 539.951 387.678 544.433 385.809C545.917 385.186 547.401 384.504 548.855 383.821C579.398 369.106 601.303 339.288 604.894 304.071C605.221 300.719 605.399 297.307 605.399 293.865C605.399 292.145 605.369 290.424 605.28 288.733Z" fill="black"/>
</g>
<defs>
<clipPath id="clip0_682_42">
<rect width="400" height="400" fill="white" transform="translate(206 194)"/>
</clipPath>
</defs>
</svg>

<?xml version="1.0" encoding="UTF-8"?>
<svg id="Layer_1" xmlns="http://www.w3.org/2000/svg" xmlns:xlink="http://www.w3.org/1999/xlink" version="1.1" viewBox="0 0 800 800">
  <!-- Generator: Adobe Illustrator 30.2.0, SVG Export Plug-In . SVG Version: 2.1.1 Build 105)  -->
  <defs>
    <style>
      .st0 {
        fill: none;
      }

      .st1 {
        fill: #fff;
      }

      .st2 {
        clip-path: url(#clippath);
      }
    </style>
    <clipPath id="clippath">
      <rect class="st0" x="206" y="194" width="400" height="400"/>
    </clipPath>
  </defs>
  <rect class="st1" width="800" height="800"/>
  <g class="st2">
    <path d="M605.28,288.73c-.06-1.36-.18-2.7-.3-4.07-.03-.33-.03-.68-.09-1.01-.09-.83-.21-1.63-.33-2.46-.12-.86-.21-1.69-.33-2.52-.09-.59-.21-1.19-.33-1.75-.18-1.04-.36-2.11-.56-3.14-.18-.83-.39-1.63-.56-2.46-.18-.8-.36-1.57-.53-2.37-.21-.83-.47-1.63-.71-2.46-.21-.77-.41-1.51-.65-2.28-.27-.83-.56-1.66-.86-2.49-.24-.71-.47-1.42-.71-2.14-.39-1.04-.8-2.05-1.19-3.06-.21-.5-.39-.98-.59-1.48-.48-1.1-.95-2.17-1.45-3.23-.18-.39-.36-.8-.53-1.19-.47-1.01-1.01-1.99-1.51-2.97-.24-.45-.45-.89-.68-1.34-.59-1.1-1.25-2.2-1.87-3.26-.18-.3-.33-.59-.5-.89-.68-1.13-1.4-2.23-2.14-3.32-.15-.24-.3-.48-.45-.71-.89-1.31-1.81-2.61-2.76-3.89-.89-1.19-1.81-2.37-2.76-3.53-.06-.09-.12-.18-.21-.27-18.34-22.22-46.04-36.34-77.05-36.37v-.06l-.09.06h.03c-8.61,0-16.98,1.1-24.96,3.14-4.78,1.22-9.44,2.82-13.92,4.69-1.48.62-2.97,1.31-4.42,1.99-29.47,14.18-50.85,42.43-55.56,76.01h-.06c-2.08,14.39-6.5,28.01-12.79,40.53h.21c-21.91,43.43-66.9,73.25-118.91,73.25-23.21,0-45-5.93-63.99-16.35-2.23-1.22-4.93.39-4.93,2.91v13.44h-.21v199.58h199.7v-99.81h.21v-49.9c0-27.56,22.35-49.9,49.92-49.9h49.92c8.55,0,16.83-1.1,24.76-3.14,4.78-1.25,9.44-2.82,13.92-4.69,1.48-.62,2.97-1.3,4.42-1.99,30.54-14.72,52.45-44.53,56.04-79.75.33-3.35.51-6.76.51-10.21,0-1.72-.03-3.44-.12-5.13Z"/>
  </g>
</svg>
